X: 072144
T: Green Pound
C: Joe Liddy
Z: BB
S: "The Leitrim Fiddler" (Dublin 1981)
L: 1/8
M: 4/4
R: reel
Q: 1/4 = 180
K: G
DG | B2 GB AGEG | DGBG DGBd | c2 cB cdef | gdBG AGED |
B3 G AGEF | GBdB cdeg | fgaf gedc | BcAF G2 :|
Bd | g2 bg egdg | egdB GABd | g2 bg eg d2 | ea (3bag a2 ef |
gabg egdB | c2 cB cdeg | fgaf gedc | BcAF G2 :|
